src/assets/svgs/waves-t.svg

<svg width="768" height="307" viewBox="0 0 768 307" fill="none" xmlns="http://www.w3.org/2000/svg">
<g opacity="0.1">
<mask id="mask0_5_139" style="mask-type:alpha" maskUnits="userSpaceOnUse" x="0" y="0" width="768" height="307">
<rect x="768" width="307" height="768" transform="rotate(90 768 0)" fill="#042925"/>
</mask>
<g mask="url(#mask0_5_139)">
<path d="M452.976 443.646C386.032 444.469 332.468 410.347 280.659 377.361C229.255 344.617 176.074 310.736 110.063 311.547C44.0301 312.359 -7.89511 347.507 -58.1069 381.5C-85.014 399.714 -112.844 418.555 -142.593 431.975L-143.899 428.567C-114.414 415.249 -86.6941 396.508 -59.8973 378.345C-9.28984 344.1 43.0305 308.677 109.975 307.854C176.919 307.031 230.482 341.153 282.291 374.139C333.696 406.883 386.877 440.764 452.888 439.952C518.898 439.141 570.846 403.993 621.057 369.975C671.665 335.73 723.985 300.307 790.929 299.484L790.995 303.178C724.962 303.99 673.037 339.137 622.826 373.155C572.241 407.4 519.898 442.824 452.976 443.646Z" fill="#F7F7F7"/>
<path d="M452.976 419.646C386.032 420.469 332.469 386.353 280.659 353.348C229.255 320.61 176.074 286.735 110.063 287.547C44.0301 288.358 -7.89521 323.5 -58.1067 357.512C-85.0138 375.723 -112.843 394.56 -142.593 407.979L-143.899 404.571C-114.414 391.255 -86.6944 372.493 -59.8971 354.357C-9.28994 320.094 43.0306 284.677 109.975 283.854C176.919 283.031 230.482 317.147 282.292 350.151C333.696 382.89 386.877 416.764 452.888 415.953C518.898 415.142 570.846 380 621.058 345.987C671.665 311.724 723.985 276.307 790.929 275.484L790.995 279.177C724.962 279.989 673.037 315.13 622.826 349.143C572.241 383.406 519.898 418.824 452.976 419.646Z" fill="#F7F7F7"/>
<path d="M452.976 394.646C386.032 395.469 332.469 361.347 280.66 328.361C229.255 295.616 176.074 261.736 110.063 262.547C44.0301 263.359 -7.89504 298.507 -58.1068 332.5C-85.0139 350.714 -112.843 369.555 -142.593 382.975L-143.899 379.567C-114.414 366.249 -86.694 347.508 -59.8972 329.345C-9.28978 295.1 43.0306 259.676 109.975 258.854C176.919 258.031 230.482 292.153 282.291 325.139C333.696 357.883 386.877 391.763 452.888 390.952C518.899 390.141 570.846 354.993 621.057 320.974C671.665 286.73 723.985 251.306 790.929 250.483L790.995 254.177C724.962 254.989 673.037 290.137 622.826 324.155C572.241 358.399 519.898 393.823 452.976 394.646Z" fill="#F7F7F7"/>
<path d="M451.976 371.646C385.032 372.469 331.468 338.341 279.659 305.349C228.254 272.599 175.073 238.712 109.063 239.523C43.0296 240.335 -8.89543 275.489 -59.1071 309.488C-86.0142 327.705 -113.844 346.549 -143.593 359.972L-144.898 356.588C-115.414 343.267 -87.6939 324.523 -60.8971 306.357C-10.2897 272.106 42.0305 236.677 108.975 235.854C175.919 235.031 229.482 269.159 281.292 302.151C332.696 334.901 385.877 368.788 451.888 367.976C517.899 367.165 569.846 332.011 620.057 297.987C670.665 263.736 722.985 228.307 789.929 227.484L789.995 231.179C723.962 231.99 672.037 267.144 621.826 301.168C571.24 335.394 518.898 370.824 451.976 371.646Z" fill="#F7F7F7"/>
<path d="M451.976 346.646C385.032 347.469 331.468 313.347 279.659 280.361C228.255 247.617 175.074 213.761 109.063 214.572C43.0305 215.384 -8.89467 250.531 -59.1065 284.525C-86.0136 302.739 -113.843 321.579 -143.592 335L-144.899 331.567C-115.414 318.249 -87.6941 299.508 -60.8973 281.345C-10.2898 247.1 42.0305 211.677 108.975 210.854C175.919 210.031 229.482 244.153 281.291 277.139C332.696 309.883 385.877 343.739 451.887 342.928C517.898 342.116 569.845 306.969 620.057 272.975C670.664 238.706 722.985 203.307 789.929 202.484L789.995 206.178C723.962 206.99 672.037 242.137 621.825 276.131C571.241 310.4 518.898 345.824 451.976 346.646Z" fill="#F7F7F7"/>
<path d="M451.976 322.646C385.032 323.469 331.468 289.347 279.659 256.361C228.255 223.617 175.074 189.736 109.063 190.547C43.0301 191.359 -8.89511 226.507 -59.1069 260.5C-86.058 278.739 -113.888 297.58 -143.615 311L-144.899 307.567C-115.414 294.249 -87.6941 275.508 -60.8973 257.345C-10.2898 223.1 42.0305 187.677 108.975 186.854C175.919 186.031 229.482 220.153 281.291 253.139C332.696 285.883 385.877 319.764 451.888 318.952C517.898 318.141 569.846 282.993 620.057 248.975C670.665 214.73 722.985 179.307 789.929 178.484L789.995 182.178C723.962 182.99 672.037 218.137 621.826 252.155C571.241 286.4 518.898 321.824 451.976 322.646Z" fill="#F7F7F7"/>
<path d="M450.976 297.646C384.032 298.469 330.468 264.347 278.659 231.361C227.255 198.617 174.074 164.761 108.063 165.572C42.0305 166.384 -9.89467 201.531 -60.1065 235.525C-87.0136 253.739 -114.843 272.579 -144.592 286L-145.899 282.567C-116.414 269.249 -88.6942 250.508 -61.8973 232.345C-11.2898 198.1 41.0305 162.677 107.975 161.854C174.919 161.031 228.482 195.153 280.291 228.139C331.696 260.883 384.877 294.739 450.887 293.928C516.898 293.117 568.845 257.969 619.057 223.975C669.664 189.706 721.985 154.307 788.929 153.484L788.995 157.178C722.962 157.99 671.037 193.137 620.825 227.131C570.241 261.4 517.898 296.824 450.976 297.646Z" fill="#F7F7F7"/>
<path d="M450.976 274.646C384.032 275.469 330.469 241.347 278.66 208.361C227.255 175.616 174.074 141.736 108.063 142.547C42.0301 143.359 -9.89505 178.507 -60.1068 212.5C-87.0139 230.714 -114.843 249.555 -144.593 262.975L-145.899 259.567C-116.414 246.249 -88.694 227.508 -61.8972 209.345C-11.2898 175.1 41.0306 139.676 107.975 138.854C174.919 138.031 228.482 172.153 280.291 205.139C331.696 237.883 384.877 271.763 450.888 270.952C516.899 270.141 568.846 234.993 619.057 200.974C669.665 166.73 721.985 131.306 788.929 130.483L788.995 134.177C722.962 134.989 671.037 170.137 620.826 204.155C570.241 238.399 517.898 273.823 450.976 274.646Z" fill="#F7F7F7"/>
<path d="M450.976 250.646C384.032 251.469 330.468 217.347 278.659 184.361C227.255 151.617 174.074 117.736 108.063 118.548C42.0301 119.359 -9.89514 154.507 -60.107 188.5C-87.0141 206.714 -114.844 225.555 -144.593 238.975L-145.899 235.567C-116.414 222.249 -88.6942 203.508 -61.8974 185.345C-11.2899 151.1 41.0305 115.677 107.975 114.854C174.919 114.031 228.482 148.153 280.291 181.139C331.696 213.884 384.877 247.764 450.888 246.953C516.898 246.141 568.846 210.993 619.057 176.975C669.665 142.731 721.985 107.307 788.929 106.484L788.995 110.178C722.962 110.99 671.037 146.138 620.826 180.156C570.24 214.4 517.898 249.824 450.976 250.646Z" fill="#F7F7F7"/>
<path d="M449.976 225.646C383.032 226.469 329.468 192.341 277.659 159.349C226.254 126.599 173.074 92.7367 107.063 93.5481C41.0301 94.3597 -10.895 129.513 -61.1067 163.513C-88.0137 181.73 -115.843 200.574 -145.592 213.996L-146.898 210.588C-117.414 197.267 -89.6943 178.498 -62.8971 160.357C-12.2897 126.106 40.0306 90.6765 106.975 89.8537C173.919 89.0309 227.482 123.159 279.292 156.151C330.696 188.901 383.877 222.763 449.888 221.952C515.898 221.14 567.846 185.986 618.057 151.987C668.664 117.712 720.985 82.3066 787.929 81.4838L787.995 85.1784C721.962 85.9901 670.037 121.144 619.826 155.143C569.241 189.394 516.898 224.824 449.976 225.646Z" fill="#F7F7F7"/>
<path d="M449.976 201.646C383.032 202.469 329.468 168.347 277.659 135.361C226.255 102.617 173.074 68.7362 107.063 69.5475C41.0301 70.3591 -10.8951 105.507 -61.107 139.5C-88.014 157.714 -115.844 176.555 -145.593 189.975L-146.899 186.567C-117.414 173.249 -89.6946 154.483 -62.8974 136.345C-12.2899 102.1 40.0305 66.6766 106.975 65.8538C173.919 65.031 227.482 99.1531 279.291 132.139C330.696 164.884 383.877 198.764 449.888 197.953C515.898 197.141 567.846 161.993 618.057 127.975C668.665 93.7305 720.985 58.307 787.929 57.4842L787.995 61.1782C721.962 61.9898 670.037 97.1375 619.826 131.156C569.24 165.4 516.898 200.824 449.976 201.646Z" fill="#F7F7F7"/>
<path d="M448.976 177.646C382.032 178.469 328.469 144.347 276.659 111.361C225.255 78.6164 172.074 44.7606 106.063 45.572C40.0305 46.3837 -11.8946 81.5314 -62.1064 115.525C-89.0135 133.739 -116.843 152.579 -146.592 166L-147.899 162.567C-118.414 149.249 -90.6941 130.508 -63.8973 112.345C-13.2898 78.1 39.0306 42.6765 105.975 41.8537C172.919 41.0308 226.482 75.1529 278.291 108.139C329.696 140.883 382.877 174.739 448.887 173.928C514.898 173.116 566.845 137.968 617.057 103.975C667.665 69.7301 719.985 34.3065 786.929 33.4837L786.995 37.1777C720.962 37.9893 669.037 73.137 618.825 107.131C568.241 141.4 515.898 176.823 448.976 177.646Z" fill="#F7F7F7"/>
<path d="M448.976 153.646C382.032 154.469 328.469 120.347 276.66 87.3607C225.255 54.6161 172.074 20.7358 106.063 21.5472C40.0301 22.3589 -11.895 57.5066 -62.1068 91.5002C-89.0138 109.714 -116.843 128.555 -146.593 141.975L-147.899 138.567C-118.414 125.249 -90.6944 106.483 -63.8972 88.3447C-13.2898 54.1 39.0306 18.6764 105.975 17.8535C172.919 17.0306 226.482 51.1526 278.291 84.1385C329.696 116.883 382.877 150.763 448.888 149.952C514.899 149.14 566.846 113.993 617.057 79.9743C667.664 45.7048 719.985 10.3059 786.929 9.48301L786.995 13.177C720.962 13.9887 669.037 49.1364 618.826 83.1547C568.241 117.399 515.898 152.823 448.976 153.646Z" fill="#F7F7F7"/>
<path d="M448.976 128.646C382.032 129.469 328.469 95.3468 276.659 62.3609C225.255 29.6163 172.074 -4.26404 106.063 -3.45265C40.0301 -2.641 -11.8951 32.5067 -62.1064 66.5249C-89.0584 84.7144 -116.888 103.555 -146.615 116.975L-147.899 113.567C-118.414 100.249 -90.6941 81.5077 -63.8973 63.3447C-13.2898 29.1 39.0306 -6.32351 105.975 -7.14637C172.919 -7.96923 226.482 26.1528 278.291 59.1387C329.696 91.8832 382.877 125.739 448.887 124.928C514.898 124.116 566.846 88.9682 617.057 54.9746C667.664 20.7052 719.985 -14.6936 786.929 -15.5165L786.995 -11.8225C720.962 -11.0108 669.037 24.1369 618.826 58.1551C568.241 92.3996 515.898 127.823 448.976 128.646Z" fill="#F7F7F7"/>
<path d="M447.976 104.646C381.032 105.469 327.468 71.3408 275.659 38.349C224.254 5.59858 171.074 -28.2633 105.063 -27.4519C39.0301 -26.6403 -12.895 8.51349 -63.1067 42.5129C-90.0137 60.7296 -117.843 79.5736 -147.592 92.9965L-148.898 89.5881C-119.414 76.267 -91.6939 57.5229 -64.8971 39.3568C-14.2902 5.08153 38.0306 -30.3235 104.975 -31.1463C171.919 -31.9691 225.482 2.15902 277.292 35.1508C328.696 67.9013 381.878 101.788 447.888 100.976C513.899 100.165 565.846 65.011 616.057 30.9869C666.664 -3.28839 718.985 -38.6934 785.929 -39.5162L785.995 -35.8216C719.962 -35.0099 668.037 0.143849 617.826 34.1433C567.241 68.4183 514.898 103.824 447.976 104.646Z" fill="#F7F7F7"/>
<path d="M447.976 81.646C381.032 82.4689 327.469 48.3469 275.659 15.361C224.255 -17.3836 171.074 -51.2394 105.063 -50.428C39.0305 -49.6163 -12.8946 -14.4686 -63.1064 19.525C-90.0135 37.7385 -117.843 56.5792 -147.592 69.9999L-148.899 66.5675C-119.414 53.2486 -91.6941 34.5078 -64.8973 16.3448C-14.2898 -17.9 38.0306 -53.3235 104.975 -54.1463C171.919 -54.9692 225.482 -20.8471 277.291 12.1387C328.696 44.8833 381.877 78.7391 447.887 77.9277C513.898 77.1163 565.845 41.9683 616.057 7.97477C666.665 -26.27 718.985 -61.6935 785.929 -62.5164L785.995 -58.8224C719.962 -58.0107 668.037 -22.863 617.825 11.1306C567.241 45.3997 514.898 80.8234 447.976 81.646Z" fill="#F7F7F7"/>
<path d="M447.976 56.6461C381.032 57.469 327.469 23.3469 275.659 -9.63899C224.255 -42.3835 171.074 -76.2393 105.063 -75.428C39.0305 -74.6163 -12.8947 -39.4686 -63.1065 -5.47507C-90.0135 12.7385 -117.843 31.5792 -147.592 44.9999L-148.899 41.5675C-119.414 28.2486 -91.6946 9.48314 -64.8973 -8.65519C-14.2898 -42.8999 38.0306 -78.3235 104.975 -79.1463C171.919 -79.9691 225.482 -45.8471 277.291 -12.8612C328.696 19.8834 381.877 53.7392 447.887 52.9278C513.898 52.1164 565.845 16.9685 616.057 -17.0251C666.664 -51.2945 718.985 -86.6934 785.929 -87.5162L785.995 -83.8222C719.962 -83.0106 668.037 -47.8629 617.825 -13.8693C567.241 20.3998 514.898 55.8236 447.976 56.6461Z" fill="#F7F7F7"/>
<path d="M447.976 32.646C381.032 33.4689 327.469 -0.653153 275.659 -33.639C224.255 -66.3836 171.074 -100.239 105.063 -99.428C39.0305 -98.6163 -12.8946 -63.4686 -63.1064 -29.4751C-90.0135 -11.2615 -117.843 7.57923 -147.592 20.9999L-148.899 17.5674C-119.414 4.24856 -91.6941 -14.4923 -64.8973 -32.6552C-14.2898 -66.9 38.0306 -102.323 104.975 -103.146C171.919 -103.969 225.482 -69.8471 277.291 -36.8613C328.696 -4.11671 381.877 29.7391 447.887 28.9277C513.898 28.1163 565.845 -7.03165 616.057 -41.0252C666.664 -75.2946 718.985 -110.693 785.929 -111.516L785.995 -107.822C719.962 -107.011 668.037 -71.863 617.825 -37.8694C567.241 -3.60031 514.898 31.8235 447.976 32.646Z" fill="#F7F7F7"/>
<path d="M447.976 7.64588C381.032 8.46874 327.469 -25.6533 275.659 -58.6392C224.255 -91.3837 171.074 -125.239 105.063 -124.428C39.0305 -123.616 -12.8946 -88.4687 -63.1064 -54.4751C-90.0135 -36.2615 -117.843 -17.4208 -147.592 -4.00014L-148.899 -7.43259C-119.414 -20.7514 -91.6941 -39.4923 -64.8973 -57.6552C-14.2898 -91.9 38.0306 -127.324 104.975 -128.146C171.919 -128.969 225.482 -94.8472 277.291 -61.8614C328.696 -29.1168 381.877 4.76355 447.888 3.95216C513.899 3.14077 565.846 -32.0072 616.057 -66.0254C666.664 -100.295 718.985 -135.694 785.929 -136.517L785.995 -132.823C719.962 -132.011 668.037 -96.8632 617.825 -62.8696C567.241 -28.6005 514.898 6.82328 447.976 7.64588Z" fill="#F7F7F7"/>
</g>
</g>
</svg>

<svg width="768" height="307" fill="none" xmlns="http://www.w3.org/2000/svg"><g opacity=".1"><mask id="a" style="mask-type:alpha" maskUnits="userSpaceOnUse" x="0" y="0" width="768" height="307"><path transform="rotate(90 768 0)" fill="#042925" d="M768 0h307v768H768z"/></mask><g mask="url(#a)" fill="#F7F7F7"><path d="M452.976 443.646c-66.944.823-120.508-33.299-172.317-66.285-51.404-32.744-104.585-66.625-170.596-65.814-66.033.812-117.958 35.96-168.17 69.953-26.907 18.214-54.737 37.055-84.486 50.475l-1.306-3.408c29.485-13.318 57.205-32.059 84.002-50.222C-9.29 344.1 43.03 308.677 109.975 307.854c66.944-.823 120.507 33.299 172.316 66.285 51.405 32.744 104.586 66.625 170.597 65.813 66.01-.811 117.958-35.959 168.169-69.977 50.608-34.245 102.928-69.668 169.872-70.491l.066 3.694c-66.033.812-117.958 35.959-168.169 69.977-50.585 34.245-102.928 69.669-169.85 70.491Z"/><path d="M452.976 419.646c-66.944.823-120.507-33.293-172.317-66.298-51.404-32.738-104.585-66.613-170.596-65.801-66.033.811-117.958 35.953-168.17 69.965-26.907 18.211-54.736 37.048-84.486 50.467l-1.306-3.408c29.485-13.316 57.205-32.078 84.002-50.214 50.607-34.263 102.928-69.68 169.872-70.503 66.944-.823 120.507 33.293 172.317 66.297 51.404 32.739 104.585 66.613 170.596 65.802 66.01-.811 117.958-35.953 168.17-69.966 50.607-34.263 102.927-69.68 169.871-70.503l.066 3.693c-66.033.812-117.958 35.953-168.169 69.966-50.585 34.263-102.928 69.681-169.85 70.503Z"/><path d="M452.976 394.646c-66.944.823-120.507-33.299-172.316-66.285-51.405-32.745-104.586-66.625-170.597-65.814-66.033.812-117.958 35.96-168.17 69.953-26.907 18.214-54.736 37.055-84.486 50.475l-1.306-3.408c29.485-13.318 57.205-32.059 84.002-50.222C-9.29 295.1 43.03 259.676 109.975 258.854c66.944-.823 120.507 33.299 172.316 66.285 51.405 32.744 104.586 66.624 170.597 65.813 66.011-.811 117.958-35.959 168.169-69.978 50.608-34.244 102.928-69.668 169.872-70.491l.066 3.694c-66.033.812-117.958 35.96-168.169 69.978-50.585 34.244-102.928 69.668-169.85 70.491Z"/><path d="M451.976 371.646c-66.944.823-120.508-33.305-172.317-66.297-51.405-32.75-104.586-66.637-170.596-65.826-66.033.812-117.958 35.966-168.17 69.965-26.907 18.217-54.737 37.061-84.486 50.484l-1.305-3.384c29.484-13.321 57.204-32.065 84-50.231 50.608-34.251 102.929-69.68 169.873-70.503 66.944-.823 120.507 33.305 172.317 66.297 51.404 32.75 104.585 66.637 170.596 65.825 66.011-.811 117.958-35.965 168.169-69.989 50.608-34.251 102.928-69.68 169.872-70.503l.066 3.695c-66.033.811-117.958 35.965-168.169 69.989-50.586 34.226-102.928 69.656-169.85 70.478Z"/><path d="M451.976 346.646c-66.944.823-120.508-33.299-172.317-66.285-51.404-32.744-104.585-66.6-170.596-65.789-66.032.812-117.958 35.959-168.17 69.953-26.907 18.214-54.736 37.054-84.485 50.475l-1.307-3.433c29.485-13.318 57.205-32.059 84.002-50.222C-10.29 247.1 42.03 211.677 108.975 210.854c66.944-.823 120.507 33.299 172.316 66.285 51.405 32.744 104.586 66.6 170.596 65.789 66.011-.812 117.958-35.959 168.17-69.953 50.607-34.269 102.928-69.668 169.872-70.491l.066 3.694c-66.033.812-117.958 35.959-168.17 69.953-50.584 34.269-102.927 69.693-169.849 70.515Z"/><path d="M451.976 322.646c-66.944.823-120.508-33.299-172.317-66.285-51.404-32.744-104.585-66.625-170.596-65.814-66.033.812-117.958 35.96-168.17 69.953-26.951 18.239-54.781 37.08-84.508 50.5l-1.284-3.433c29.485-13.318 57.205-32.059 84.002-50.222C-10.29 223.1 42.03 187.677 108.975 186.854c66.944-.823 120.507 33.299 172.316 66.285 51.405 32.744 104.586 66.625 170.597 65.813 66.01-.811 117.958-35.959 168.169-69.977 50.608-34.245 102.928-69.668 169.872-70.491l.066 3.694c-66.033.812-117.958 35.959-168.169 69.977-50.585 34.245-102.928 69.669-169.85 70.491Z"/><path d="M450.976 297.646c-66.944.823-120.508-33.299-172.317-66.285-51.404-32.744-104.585-66.6-170.596-65.789-66.032.812-117.958 35.959-168.17 69.953-26.907 18.214-54.736 37.054-84.485 50.475l-1.307-3.433c29.485-13.318 57.205-32.059 84.002-50.222C-11.29 198.1 41.03 162.677 107.975 161.854c66.944-.823 120.507 33.299 172.316 66.285 51.405 32.744 104.586 66.6 170.596 65.789 66.011-.811 117.958-35.959 168.17-69.953 50.607-34.269 102.928-69.668 169.872-70.491l.066 3.694c-66.033.812-117.958 35.959-168.17 69.953-50.584 34.269-102.927 69.693-169.849 70.515Z"/><path d="M450.976 274.646c-66.944.823-120.507-33.299-172.316-66.285-51.405-32.745-104.586-66.625-170.597-65.814-66.033.812-117.958 35.96-168.17 69.953-26.907 18.214-54.736 37.055-84.486 50.475l-1.306-3.408c29.485-13.318 57.205-32.059 84.002-50.222C-11.29 175.1 41.03 139.676 107.975 138.854c66.944-.823 120.507 33.299 172.316 66.285 51.405 32.744 104.586 66.624 170.597 65.813 66.011-.811 117.958-35.959 168.169-69.978 50.608-34.244 102.928-69.668 169.872-70.491l.066 3.694c-66.033.812-117.958 35.96-168.169 69.978-50.585 34.244-102.928 69.668-169.85 70.491Z"/><path d="M450.976 250.646c-66.944.823-120.508-33.299-172.317-66.285-51.404-32.744-104.585-66.625-170.596-65.813-66.033.811-117.958 35.959-168.17 69.952-26.907 18.214-54.737 37.055-84.486 50.475l-1.306-3.408c29.485-13.318 57.205-32.059 84.002-50.222C-11.29 151.1 41.03 115.677 107.975 114.854c66.944-.823 120.507 33.299 172.316 66.285 51.405 32.745 104.586 66.625 170.597 65.814 66.01-.812 117.958-35.96 168.169-69.978 50.608-34.244 102.928-69.668 169.872-70.491l.066 3.694c-66.033.812-117.958 35.96-168.169 69.978-50.586 34.244-102.928 69.668-169.85 70.49Z"/><path d="M449.976 225.646c-66.944.823-120.508-33.305-172.317-66.297-51.405-32.75-104.585-66.612-170.596-65.8-66.033.81-117.958 35.964-168.17 69.964-26.907 18.217-54.736 37.061-84.485 50.483l-1.306-3.408c29.484-13.321 57.204-32.09 84-50.231 50.608-34.251 102.929-69.68 169.873-70.503 66.944-.823 120.507 33.305 172.317 66.297 51.404 32.75 104.585 66.612 170.596 65.801 66.01-.812 117.958-35.966 168.169-69.965 50.607-34.275 102.928-69.68 169.872-70.503l.066 3.694c-66.033.812-117.958 35.966-168.169 69.965-50.585 34.251-102.928 69.681-169.85 70.503Z"/><path d="M449.976 201.646c-66.944.823-120.508-33.299-172.317-66.285-51.404-32.744-104.585-66.625-170.596-65.813-66.033.811-117.958 35.959-168.17 69.952-26.907 18.214-54.737 37.055-84.486 50.475l-1.306-3.408c29.485-13.318 57.204-32.084 84.002-50.222C-12.29 102.1 40.03 66.677 106.975 65.854c66.944-.823 120.507 33.3 172.316 66.285 51.405 32.745 104.586 66.625 170.597 65.814 66.01-.812 117.958-35.96 168.169-69.978 50.608-34.244 102.928-69.668 169.872-70.49l.066 3.693c-66.033.812-117.958 35.96-168.169 69.978-50.586 34.244-102.928 69.668-169.85 70.49Z"/><path d="M448.976 177.646c-66.944.823-120.507-33.299-172.317-66.285-51.404-32.745-104.585-66.6-170.596-65.789-66.032.812-117.958 35.96-168.17 69.953-26.906 18.214-54.736 37.054-84.485 50.475l-1.307-3.433c29.485-13.318 57.205-32.059 84.002-50.222C-13.29 78.1 39.03 42.677 105.975 41.854c66.944-.823 120.507 33.299 172.316 66.285 51.405 32.744 104.586 66.6 170.596 65.789 66.011-.812 117.958-35.96 168.17-69.953 50.608-34.245 102.928-69.668 169.872-70.491l.066 3.694c-66.033.811-117.958 35.959-168.17 69.953-50.584 34.269-102.927 69.692-169.849 70.515Z"/><path d="M448.976 153.646c-66.944.823-120.507-33.299-172.316-66.285-51.405-32.745-104.586-66.625-170.597-65.814C40.03 22.36-11.895 57.507-62.107 91.5c-26.907 18.214-54.736 37.055-84.486 50.475l-1.306-3.408c29.485-13.318 57.205-32.084 84.002-50.222C-13.29 54.1 39.03 18.676 105.975 17.853c66.944-.822 120.507 33.3 172.316 66.285 51.405 32.745 104.586 66.625 170.597 65.814 66.011-.812 117.958-35.959 168.169-69.978 50.607-34.27 102.928-69.668 169.872-70.491l.066 3.694c-66.033.812-117.958 35.96-168.169 69.978-50.585 34.244-102.928 69.668-169.85 70.491Z"/><path d="M448.976 128.646c-66.944.823-120.507-33.3-172.317-66.285C225.255 29.616 172.074-4.264 106.063-3.453 40.03-2.64-11.895 32.507-62.107 66.525c-26.951 18.19-54.781 37.03-84.508 50.45l-1.284-3.408c29.485-13.318 57.205-32.06 84.002-50.222C-13.29 29.1 39.03-6.324 105.975-7.146c66.944-.823 120.507 33.299 172.316 66.285 51.405 32.744 104.586 66.6 170.596 65.789 66.011-.812 117.959-35.96 168.17-69.953 50.607-34.27 102.928-69.669 169.872-70.492l.066 3.694c-66.033.812-117.958 35.96-168.169 69.978-50.585 34.245-102.928 69.668-169.85 70.491Z"/><path d="M447.976 104.646c-66.944.823-120.508-33.305-172.317-66.297-51.405-32.75-104.585-66.612-170.596-65.8-66.033.81-117.958 35.964-168.17 69.964-26.907 18.217-54.736 37.06-84.485 50.483l-1.306-3.408c29.484-13.321 57.204-32.065 84-50.231C-14.29 5.082 38.032-30.323 104.976-31.146c66.944-.823 120.507 33.305 172.317 66.297 51.404 32.75 104.586 66.637 170.596 65.825 66.011-.811 117.958-35.965 168.169-69.99 50.607-34.274 102.928-69.68 169.872-70.502l.066 3.694C719.962-35.01 668.037.144 617.826 34.143c-50.585 34.275-102.928 69.681-169.85 70.503Z"/><path d="M447.976 81.646c-66.944.823-120.507-33.3-172.317-66.285-51.404-32.745-104.585-66.6-170.596-65.789-66.032.812-117.958 35.96-168.17 69.953C-90.012 37.739-117.842 56.579-147.591 70l-1.307-3.433c29.485-13.318 57.205-32.06 84.002-50.222C-14.29-17.9 38.03-53.323 104.975-54.146c66.944-.823 120.507 33.299 172.316 66.285 51.405 32.744 104.586 66.6 170.596 65.789 66.011-.812 117.958-35.96 168.17-69.953 50.608-34.245 102.928-69.668 169.872-70.491l.066 3.694c-66.033.811-117.958 35.959-168.17 69.953C567.241 45.4 514.898 80.823 447.976 81.646Z"/><path d="M447.976 56.646c-66.944.823-120.507-33.3-172.317-66.285-51.404-32.745-104.585-66.6-170.596-65.789-66.032.812-117.958 35.96-168.17 69.953C-90.012 12.739-117.842 31.579-147.591 45l-1.307-3.432c29.485-13.32 57.204-32.085 84.002-50.223C-14.29-42.9 38.03-78.323 104.975-79.146c66.944-.823 120.507 33.299 172.316 66.285 51.405 32.744 104.586 66.6 170.596 65.789 66.011-.812 117.958-35.96 168.17-69.953 50.607-34.27 102.928-69.668 169.872-70.491l.066 3.694c-66.033.811-117.958 35.96-168.17 69.953C567.241 20.4 514.898 55.824 447.976 56.646Z"/><path d="M447.976 32.646c-66.944.823-120.507-33.3-172.317-66.285-51.404-32.745-104.585-66.6-170.596-65.789-66.032.812-117.958 35.96-168.17 69.953C-90.012-11.261-117.842 7.579-147.591 21l-1.307-3.433c29.485-13.318 57.205-32.06 84.002-50.222C-14.29-66.9 38.03-102.323 104.975-103.146c66.944-.823 120.507 33.299 172.316 66.285 51.405 32.744 104.586 66.6 170.596 65.789 66.011-.812 117.958-35.96 168.17-69.953 50.607-34.27 102.928-69.668 169.872-70.491l.066 3.694c-66.033.811-117.958 35.959-168.17 69.953C567.241-3.6 514.898 31.823 447.976 32.646Z"/><path d="M447.976 7.646c-66.944.823-120.507-33.3-172.317-66.285-51.404-32.745-104.585-66.6-170.596-65.789-66.032.812-117.958 35.96-168.17 69.953C-90.012-36.261-117.842-17.421-147.591-4l-1.307-3.433c29.485-13.318 57.205-32.06 84.002-50.222C-14.29-91.9 38.03-127.324 104.975-128.146c66.944-.823 120.507 33.299 172.316 66.285C328.696-29.117 381.877 4.764 447.888 3.952c66.011-.811 117.958-35.96 168.169-69.977 50.607-34.27 102.928-69.669 169.872-70.492l.066 3.694c-66.033.812-117.958 35.96-168.17 69.953C567.241-28.6 514.898 6.823 447.976 7.646Z"/></g></g></svg>
